resources/svg/bulb-on-o.svg

<svg width="15" height="15" viewBox="0 0 15 15" fill="none" xmlns="http://www.w3.org/2000/svg">
<path d="M4.07572 6.46984L4.5707 6.54056V6.54056L4.07572 6.46984ZM4.06567 6.5402L3.5707 6.46949L3.5707 6.46949L4.06567 6.5402ZM10.9242 6.46985L11.4192 6.39914V6.39914L10.9242 6.46985ZM10.9343 6.54021L10.4393 6.61091V6.61092L10.9343 6.54021ZM9.5 12.5V13C9.77614 13 10 12.7761 10 12.5H9.5ZM5.5 12.5H5C5 12.7761 5.22386 13 5.5 13V12.5ZM4.75549 9.15291L5.15088 8.84687L4.75549 9.15291ZM10.2445 9.15289L9.8491 8.84686L10.2445 9.15289ZM6 15H9V14H6V15ZM3.58075 6.39913L3.5707 6.46949L4.56064 6.61091L4.5707 6.54056L3.58075 6.39913ZM7.49998 3C5.52977 3 3.85938 4.44872 3.58075 6.39913L4.5707 6.54056C4.77895 5.08279 6.02742 4 7.49998 4V3ZM11.4192 6.39914C11.1406 4.44873 9.4702 3 7.49998 3V4C8.97255 4 10.221 5.0828 10.4293 6.54056L11.4192 6.39914ZM11.4293 6.4695L11.4192 6.39914L10.4293 6.54056L10.4393 6.61091L11.4293 6.4695ZM10.6399 9.45893C11.2696 8.64541 11.5885 7.58397 11.4293 6.46949L10.4393 6.61092C10.5585 7.44543 10.3209 8.23729 9.8491 8.84686L10.6399 9.45893ZM9 10.9013V12.5H10V10.9013H9ZM9.5 12H5.5V13H9.5V12ZM6 12.5V10.9013H5V12.5H6ZM3.5707 6.46949C3.41148 7.58398 3.73042 8.64543 4.36009 9.45895L5.15088 8.84687C4.67907 8.2373 4.44143 7.44544 4.56064 6.61091L3.5707 6.46949ZM6 10.9013C6 10.0775 5.56209 9.37814 5.15088 8.84687L4.36009 9.45895C4.74345 9.95426 5 10.427 5 10.9013H6ZM9.8491 8.84686C9.4379 9.37813 9 10.0775 9 10.9013H10C10 10.427 10.2565 9.95423 10.6399 9.45893L9.8491 8.84686ZM7 0V2H8V0H7ZM0 8H2V7H0V8ZM13 8H15V7H13V8ZM3.35355 3.64645L1.85355 2.14645L1.14645 2.85355L2.64645 4.35355L3.35355 3.64645ZM12.3536 4.35355L13.8536 2.85355L13.1464 2.14645L11.6464 3.64645L12.3536 4.35355Z" fill="black"/>
</svg>

<svg viewBox="0 0 15 15" fill="none" xmlns="http://www.w3.org/2000/svg" fill="currentColor"><path d="M4.076 6.47l.495.07-.495-.07zm-.01.07l-.495-.07.495.07zm6.858-.07l.495-.07-.495.07zm.01.07l-.495.07.495-.07zM9.5 12.5v.5a.5.5 0 00.5-.5h-.5zm-4 0H5a.5.5 0 00.5.5v-.5zm-.745-3.347l.396-.306-.396.306zm5.49 0l-.396-.306.396.306zM6 15h3v-1H6v1zM3.58 6.4l-.01.07.99.14.01-.07-.99-.14zM7.5 3a3.959 3.959 0 00-3.92 3.4l.99.14A2.959 2.959 0 017.5 4V3zm3.92 3.4A3.959 3.959 0 007.5 3v1a2.96 2.96 0 012.93 2.54l.99-.14zm.01.07l-.01-.07-.99.14.01.07.99-.14zm-.79 2.989c.63-.814.948-1.875.79-2.99l-.99.142a2.951 2.951 0 01-.59 2.236l.79.612zM9 10.9v1.6h1v-1.599H9zm.5 1.1h-4v1h4v-1zm-3.5.5v-1.599H5V12.5h1zM3.57 6.47a3.951 3.951 0 00.79 2.989l.79-.612a2.951 2.951 0 01-.59-2.236l-.99-.142zM6 10.9c0-.823-.438-1.523-.85-2.054l-.79.612c.383.495.64.968.64 1.442h1zm3.85-2.054C9.437 9.378 9 10.077 9 10.9h1c0-.474.257-.947.64-1.442l-.79-.612zM7 0v2h1V0H7zM0 8h2V7H0v1zm13 0h2V7h-2v1zM3.354 3.646l-1.5-1.5-.708.708 1.5 1.5.708-.708zm9 .708l1.5-1.5-.708-.708-1.5 1.5.708.708z" fill="currentColor"/></svg>
